src/telerik-icons/solid/dribbble-box.svg

<?xml version="1.0" encoding="utf-8"?>
<svg xmlns="http://www.w3.org/2000/svg" width="512" height="512" viewBox="0 0 512 512">
  <path d="M448 32H64c-17.7 0-32 14.3-32 32v384c0 17.7 14.3 32 32 32h384c17.7 0 32-14.3 32-32V64c0-17.7-14.3-32-32-32zM256 448c-106 0-192-86-192-192S150 64 256 64s192 86 192 192-86 192-192 192zm28-164.8c-82.9 28.9-118.1 83.4-126.7 98.7 27.2 21.3 61.5 34.1 98.7 34.1 22.5 0 43.9-4.6 63.3-13-3.3-18.4-13.1-65.2-34.2-120.1-.4 0-.8.2-1.1.3zm-95.5-172.3c-44.9 20.9-78.5 62.1-89 111.8 17.1-.1 78.6-1.7 147.6-20-24.3-43.2-50.3-80.1-58.6-91.8zm79 146.8c2.1-.7 4.3-1.3 6.5-2-4.1-9.3-8.6-18.6-13.3-27.8-74.1 22.2-146.1 23.4-164.6 23.4 0 1.6-.1 3.1-.1 4.7 0 40.8 15.3 78 40.4 106.3 10.5-16.7 54.6-79.9 131.1-104.6zm94.9-121.1C334.2 111.3 296.9 96 256 96c-12.4 0-24.5 1.4-36 4.1 8.7 11.9 34.9 48.8 58.8 92.7 50.7-19 76-46.7 83.6-56.2zm-46.6 138.7C335 328 344 371.9 346.9 387.8c35.2-24.3 60.2-62.5 67.2-106.6-13.2-3.7-53.4-13.1-98.3-5.9zm-24.4-58.1c3.8 7.8 7.5 15.8 10.9 23.8 1.2 2.8 2.4 5.7 3.5 8.5 48-6 95.7 1.8 110.2 4.5-.5-37.2-13.7-71.4-35.4-98.3-8.4 10-36.1 39.8-89.2 61.5z"/>
</svg>

<?xml version="1.0" encoding="utf-8"?>
<!-- Generator: Adobe Illustrator 24.2.0, SVG Export Plug-In . SVG Version: 6.00 Build 0)  -->
<svg xmlns="http://www.w3.org/2000/svg" width="512" height="512" viewBox="0 0 512 512">
<path d="M448,32H64c-17.7,0-32,14.3-32,32v384c0,17.7,14.3,32,32,32h384c17.7,0,32-14.3,32-32V64C480,46.3,465.7,32,448,32z
	 M256,448c-106,0-192-86-192-192S150,64,256,64s192,86,192,192S362,448,256,448z M284,283.2c-82.9,28.9-118.1,83.4-126.7,98.7
	c27.2,21.3,61.5,34.1,98.7,34.1c22.5,0,43.9-4.6,63.3-13c-3.3-18.4-13.1-65.2-34.2-120.1C284.7,282.9,284.3,283.1,284,283.2z
	 M188.5,110.9c-44.9,20.9-78.5,62.1-89,111.8c17.1-0.1,78.6-1.7,147.6-20C222.8,159.5,196.8,122.6,188.5,110.9z M267.5,257.7
	c2.1-0.7,4.3-1.3,6.5-2c-4.1-9.3-8.6-18.6-13.3-27.8c-74.1,22.2-146.1,23.4-164.6,23.4c0,1.6-0.1,3.1-0.1,4.7
	c0,40.8,15.3,78,40.4,106.3C146.9,345.6,191,282.4,267.5,257.7z M362.4,136.6C334.2,111.3,296.9,96,256,96c-12.4,0-24.5,1.4-36,4.1
	c8.7,11.9,34.9,48.8,58.8,92.7C329.5,173.8,354.8,146.1,362.4,136.6z M315.8,275.3c19.2,52.7,28.2,96.6,31.1,112.5
	c35.2-24.3,60.2-62.5,67.2-106.6C400.9,277.5,360.7,268.1,315.8,275.3z M291.4,217.2c3.8,7.8,7.5,15.8,10.9,23.8
	c1.2,2.8,2.4,5.7,3.5,8.5c48-6,95.7,1.8,110.2,4.5c-0.5-37.2-13.7-71.4-35.4-98.3C372.2,165.7,344.5,195.5,291.4,217.2z" />
</svg>
